X: 39
T: the Green Gates
R: reel
Z: 2012 John Chambers <jc@trillian.mit.edu>
B: "100 Essential Irish Session Tunes" 1995 Dave Mallinson, ed.
M: 4/4
L: 1/8
K: G
dB |\
"G"GBdg "C"egdB | "G"GBdg "C"eg"Em"dg | "Am"eAcA eAcA | "C"cdef "D"gedB |
"G"GBdg "C"egdB | "G"GBdg "C"eg"G7"dB | "C"cdef gedc | "G"BG"D"AF "G"G2 :|
|: Bc |\
"G"dg~g2 bg~g2 | dgfg egdg | "Am"eAcA eAcA | "C"cdef "D"gedB |
"G"dg~g2 bg~g2 | dgfg egdg | "C"cdef gedc | "G"BG"D"AF "G"G2 :|

%%sep 2 1 500
%%sep 1 1 500

